X:1
T:Jesus Passed Through Jericho
T:Jesus Passed Through Jericho
T:Charles Hutchinson Gabriel
T:Eliza Edmunds Hewitt, 1915
T:Public Domain Courtesy of the Cyber Hymnal™
T:Public Domain Courtesy of the Cyber Hymnal™
C:Charles Hutchinson Gabriel
Z:Public Domain
Z:Courtesy of the Cyber Hymnal™
%%score ( 1 2 ) ( 3 4 )
L:1/8
Q:1/4=113
M:4/2
K:Eb
V:1 treble 
V:2 treble 
V:3 bass 
V:4 bass 
V:1
 [EG]3 [E^F] [EG]3 [EA] [EG]3 [C=F] [B,E]3 [EG] | [GB]3 [^F=A] [GB]3 [_Ac] [GB]8 | %2
w: 1.~Je- sus passed thro’ Jer- i- cho, As|to the cross He went;|
w: 2.~Je- sus passed thro’ Jer- i- cho; With|joy the blind man heard;|
w: 3.~Je- sus passed thro’ Jer- i- cho, And|still He pass- eth by;|
 [Ac]3 [ce] [Bd]3 [Ac] [GB]3 [Ac] [GB]3 [EG] | [DA]3 [FB] [EG]3 E [DF]8 | %4
w: To the sin- ful and the lost The|Son of God was sent;|
w: Heed- ing not the world’s re- proach, He|begged a heal- ing word;|
w: Would you from your sin be free? To|Him lift up your cry;|
 [EG]3 [E^F] [EG]3 [EA] [EG]3 [B,=F] [B,E]3 [EG] | [GB]3 [^F=A] [GB]3 [_Ac] [GB]8 | %6
w: All the suff- ering ones of earth, The|blind, the halt, the lame,|
w: This his op- por- tun- i- ty, For|him sal- va- tion’s day;|
w: Call to Him in hum- ble faith, He|com- eth now this way!|
 [Ac]3 [ce] [Bd]3 [Ac] [GB]3 [Ge] [EB]3 [EA] | [EG]3 [EG] [DF]3 [DF] E8 || %8
w: Called His kind com- pas- sion forth, For|un- to them He came.|
w: “Lord, I would re- ceive my sight; Have|mer- cy now, I pray.”|
w: Lo, the Christ of Jer- i- cho Will|save your soul to- day.|
"^Refrain" [Ge]4 [Ge]4 [Ae]3 [Ad] [Ad]4 | [Ac]3 [Ad] [Ac]3 [Ad] [Ac]3 [GB] [GB]4 | %10
w: ||
w: Sav- ior, I be- lieve;|Let me now my sight re- ceive;|
w: ||
 [Ge]4 [EG]4 [EA]3 [EB] !fermata![Ec]4 | %11
w: |
w: Christ of Jer- i- cho,|
w: |
 [EB]3 [EB] [DB]3 [DA] !fermata![DG]2 !fermata![DF]2 !fermata!E4 |] %12
w: |
w: Let me Thy sal- va- tion know.|
w: |
V:2
 x16 | x16 | x16 | x7 E x8 | x16 | x16 | x16 | x8 E8 || x16 | x16 | x16 | x12 E4 |] %12
V:3
 [E,B,]3 [E,=A,] [E,B,]3 [E,C] [E,B,]3 [E,_A,] [E,G,]3 [E,B,] | [E,E]3 [E,E] [E,E]3 [E,E] [E,E]8 | %2
 [A,E]3 [A,E] [A,E]3 [A,E] [G,E]3 [G,E] [G,E]3 [E,B,] | [F,B,]3 [D,B,] [E,B,]3 [G,B,] B,8 | %4
 [E,B,]3 [E,=A,] [E,B,]3 [E,C] [E,B,]3 [E,_A,] [E,G,]3 [E,B,] | [E,E]3 [E,E] [E,E]3 [E,E] [E,E]8 | %6
 [A,E]3 [A,E] [A,E]3 [A,E] [E,E]3 [E,B,] [G,B,]3 [A,C] | B,3 B, [B,,A,]3 [B,,A,] [E,G,]8 || %8
 [E,B,]4 [E,B,]4 [F,B,]3 [F,B,] [F,B,]4 | [B,,D]3 [B,,D] [B,,D]3 [B,,D] [E,E]3 [E,E] [E,E]4 | %10
 [E,B,]4 [_D,B,]4 [C,A,]3 [C,G,] !fermata![A,,A,]4 | %11
 [B,,G,]3 [B,,_G,] [B,,F,]3 [B,,C] !fermata![B,,B,]2 !fermata![B,,A,]2 !fermata![E,=G,]4 |] %12
V:4
 x16 | x16 | x16 | x8 B,8 | x16 | x16 | x16 | B,3 B, x12 || x16 | x16 | x16 | x16 |] %12

